web/public/images/aws.svg

<svg fill="none" height="42" viewBox="0 0 43 42" width="43" xmlns="http://www.w3.org/2000/svg"><path d="m12.7257 17.7345c0 .5031.0402.9056.1409 1.2478.1006.2415.2415.5635.4226.9257.0805.0805.1006.2013.1006.3019 0 .1409-.0805.2617-.2616.4025l-.8453.5635c-.1207.0805-.2415.1208-.3421.1208-.1409 0-.2617-.0805-.4025-.2013-.1812-.2012-.3422-.4025-.483-.6238-.1208-.2214-.2617-.4831-.4026-.7849-1.04648 1.2276-2.35464 1.8515-3.94456 1.8515-1.12703 0-2.01255-.322-2.67669-.966-.64402-.644-.98616-1.5094-.98616-2.5962 0-1.1069.40252-2.0126 1.20754-2.7371.82514-.6843 1.91192-1.0465 3.28046-1.0465.46289 0 .88552.0402 1.42891.1207.46289.0604 1.00628.161 1.5295.2818v-.966c0-1.0264-.2012-1.6906-.62385-2.1535-.44276-.4226-1.14715-.6037-2.17356-.6037-.48301 0-.96602.0604-1.44904.161-.50313.1207-.98615.2616-1.44903.4629-.22138.0805-.40251.1408-.46289.161-.10063.0402-.16101.0402-.22138.0402-.18113 0-.28176-.1207-.28176-.4025v-.6641c0-.2013.02013-.3623.10063-.4629.06037-.1006.18113-.18115.36226-.24153.48301-.28175 1.0264-.48301 1.69054-.64401.68274-.18099 1.38678-.269 2.09306-.26163 1.58992 0 2.75722.36226 3.50182 1.08677.7447.7245 1.1069 1.8314 1.1069 3.3006v4.327zm-5.43392 2.0528c.44276 0 .88553-.0805 1.36854-.2415s.90565-.4629 1.26791-.8654c.22137-.2617.38237-.5434.50317-.8654 0-.322.1006-.7044.1006-1.1673v-.5434c-.4025-.1409-.80503-.1409-1.24779-.2415-.41451-.0456-.83086-.0724-1.24778-.0805-.90565 0-1.54967.1811-1.99243.5434s-.64402.8654-.64402 1.5295c0 .6441.14088 1.1271.48301 1.4289.32201.3422.7849.5032 1.40879.5032zm10.74702 1.4289c-.195.0075-.3887-.034-.5635-.1208-.0604-.1006-.161-.2817-.2415-.5232l-3.1396-10.3445c-.0805-.30193-.1207-.4428-.1207-.54343 0-.22138.1006-.34214.322-.34214h1.3081c.2617 0 .4428.04026.5233.14088.1207.08051.2012.26163.2817.52329l2.234 8.8552 2.093-8.8552c.0604-.26166.1409-.44278.2617-.52329.1006-.0805.2817-.14088.5031-.14088h1.1069c.2415 0 .4226.04026.5233.14088.1006.08051.2012.26163.2616.52329l2.1333 8.976 2.2943-8.976c.0805-.26166.1812-.44278.2617-.52329.1207-.0805.2817-.14088.5232-.14088h1.2478c.2214 0 .3421.12076.3421.34214 0 .06037-.0201.14088-.0402.2415 0 0-.0403.16103-.0805.30193l-3.2402 10.3445c-.0805.2817-.161.4226-.3019.5232-.0805.0805-.2616.1409-.483.1409h-1.1472c-.2616 0-.3824-.0402-.5434-.1409-.1353-.1434-.2201-.3272-.2415-.5232l-2.0729-8.6339-2.0729 8.6138c-.0604.2616-.1409.4427-.2415.5433-.1658.0916-.3545.1336-.5434.1208zm17.2073.3623c-.6641 0-1.4087-.0805-2.0729-.2415-.6641-.1611-1.1874-.3422-1.5295-.5233-.1751-.0837-.3219-.2166-.4227-.3824-.0552-.1126-.0828-.2368-.0805-.3623v-.6842c0-.2818.1007-.4025.3019-.4025h.2415c.0805 0 .2013.1006.3422.161.4427.2012.9459.3622 1.4691.4629.5434.1006 1.0868.161 1.5899.161.8453 0 1.5095-.1409 1.9522-.4428.4629-.3421.7044-.7245.7044-1.2679 0-.3824-.1409-.6843-.3622-.9459-.2416-.2415-.7044-.483-1.3485-.6843l-1.9521-.6037c-.9661-.3221-1.6906-.7648-2.1333-1.3686-.4321-.5589-.6658-1.2457-.6642-1.9522 0-.5635.1208-1.0465.3623-1.4691.2415-.4428.5635-.805.9258-1.10693.4427-.30188.8855-.52326 1.4289-.68426.5232-.16101 1.0867-.24151 1.6905-.24151.2818 0 .5836.02013.9057.06038.2817.04025.5635.10062.8452.14088.2818.0805.5233.14087.7648.22138.2415.0805.4025.161.5635.2415.1811.10063.322.20126.4025.32201s.1208.26165.1208.44275v.644c0 .2818-.1006.4227-.3019.4227-.1006 0-.2818-.0604-.5233-.161-.7446-.3422-1.61-.5233-2.5559-.5233-.7648 0-1.3283.1208-1.7912.3824-.4025.2415-.6239.644-.6239 1.1874 0 .3824.1409.7044.4025.9459.2617.2616.7648.5031 1.4692.7446l1.9119.6038c.9661.2818 1.6503.7245 2.073 1.288.4025.5434.6037 1.1673.6037 1.8717 0 .5635-.1207 1.0868-.3421 1.5497-.2415.4427-.5635.8452-1.0063 1.1673-.3824.3421-.8855.5836-1.449.7647-.5635.1812-1.2478.2617-1.912.2617zm2.5157 6.5206c-4.4075 3.2402-10.8074 4.971-16.2614 4.971-7.7483 0-14.69163-2.8578-19.94439-7.5873-.42264-.3824-.04026-.8855.46288-.5836 5.6754 3.2804 12.65901 5.2729 19.90411 5.2729 4.8905 0 10.2641-1.0063 15.1948-3.1396.7447-.3019 1.3686.5232.644 1.0666zm1.8516-2.0729c-.5837-.7446-3.7434-.3623-5.1723-.2013-.4226.0604-.483-.322-.1006-.6037 2.5157-1.7509 6.6615-1.2076 7.1244-.6642.483.6038-.1207 4.7497-2.4754 6.722-.3824.3018-.7245.1408-.5635-.2214.5434-1.3686 1.7308-4.3471 1.1874-5.0314z" fill="#a86338"/></svg>

<svg width="43" height="42" viewBox="0 0 43 42" fill="none" xmlns="http://www.w3.org/2000/svg">
<path d="M12.7257 17.7345C12.7257 18.2376 12.7659 18.6401 12.8666 18.9823C12.9672 19.2238 13.1081 19.5458 13.2892 19.908C13.3697 19.9885 13.3898 20.1093 13.3898 20.2099C13.3898 20.3508 13.3093 20.4716 13.1282 20.6124L12.2829 21.1759C12.1622 21.2564 12.0414 21.2967 11.9408 21.2967C11.7999 21.2967 11.6791 21.2162 11.5383 21.0954C11.3571 20.8942 11.1961 20.6929 11.0553 20.4716C10.9345 20.2502 10.7936 19.9885 10.6527 19.6867C9.60622 20.9143 8.29806 21.5382 6.70814 21.5382C5.58111 21.5382 4.69559 21.2162 4.03145 20.5722C3.38743 19.9282 3.04529 19.0628 3.04529 17.976C3.04529 16.8691 3.44781 15.9634 4.25283 15.2389C5.07797 14.5546 6.16475 14.1924 7.53329 14.1924C7.99618 14.1924 8.41881 14.2326 8.9622 14.3131C9.42509 14.3735 9.96848 14.4741 10.4917 14.5949V13.6289C10.4917 12.6025 10.2905 11.9383 9.86785 11.4754C9.42509 11.0528 8.7207 10.8717 7.69429 10.8717C7.21128 10.8717 6.72827 10.9321 6.24525 11.0327C5.74212 11.1534 5.2591 11.2943 4.79622 11.4956C4.57484 11.5761 4.39371 11.6364 4.33333 11.6566C4.2327 11.6968 4.17232 11.6968 4.11195 11.6968C3.93082 11.6968 3.83019 11.5761 3.83019 11.2943V10.6302C3.83019 10.4289 3.85032 10.2679 3.93082 10.1673C3.99119 10.0667 4.11195 9.98615 4.29308 9.92577C4.77609 9.64402 5.31948 9.44276 5.98362 9.28176C6.66636 9.10077 7.3704 9.01276 8.07668 9.02013C9.6666 9.02013 10.8339 9.38239 11.5785 10.1069C12.3232 10.8314 12.6854 11.9383 12.6854 13.4075V17.7345H12.7257ZM7.29178 19.7873C7.73454 19.7873 8.17731 19.7068 8.66032 19.5458C9.14333 19.3848 9.56597 19.0829 9.92823 18.6804C10.1496 18.4187 10.3106 18.137 10.4314 17.815C10.4314 17.493 10.532 17.1106 10.532 16.6477V16.1043C10.1295 15.9634 9.72697 15.9634 9.28421 15.8628C8.8697 15.8172 8.45335 15.7904 8.03643 15.7823C7.13078 15.7823 6.48676 15.9634 6.044 16.3257C5.60124 16.688 5.39998 17.1911 5.39998 17.8552C5.39998 18.4993 5.54086 18.9823 5.88299 19.2841C6.205 19.6263 6.66789 19.7873 7.29178 19.7873ZM18.0388 21.2162C17.8438 21.2237 17.6501 21.1822 17.4753 21.0954C17.4149 20.9948 17.3143 20.8137 17.2338 20.5722L14.0942 10.2277C14.0137 9.92577 13.9735 9.7849 13.9735 9.68427C13.9735 9.46289 14.0741 9.34213 14.2955 9.34213H15.6036C15.8653 9.34213 16.0464 9.38239 16.1269 9.48301C16.2476 9.56352 16.3281 9.74464 16.4086 10.0063L18.6426 18.8615L20.7356 10.0063C20.796 9.74464 20.8765 9.56352 20.9973 9.48301C21.0979 9.40251 21.279 9.34213 21.5004 9.34213H22.6073C22.8488 9.34213 23.0299 9.38239 23.1306 9.48301C23.2312 9.56352 23.3318 9.74464 23.3922 10.0063L25.5255 18.9823L27.8198 10.0063C27.9003 9.74464 28.001 9.56352 28.0815 9.48301C28.2022 9.40251 28.3632 9.34213 28.6047 9.34213H29.8525C30.0739 9.34213 30.1946 9.46289 30.1946 9.68427C30.1946 9.74464 30.1745 9.82515 30.1544 9.92577C30.1544 9.92577 30.1141 10.0868 30.0739 10.2277L26.8337 20.5722C26.7532 20.8539 26.6727 20.9948 26.5318 21.0954C26.4513 21.1759 26.2702 21.2363 26.0488 21.2363H24.9016C24.64 21.2363 24.5192 21.1961 24.3582 21.0954C24.2229 20.952 24.1381 20.7682 24.1167 20.5722L22.0438 11.9383L19.9709 20.5521C19.9105 20.8137 19.83 20.9948 19.7294 21.0954C19.5636 21.187 19.3749 21.229 19.186 21.2162H18.0388ZM35.2461 21.5785C34.582 21.5785 33.8374 21.498 33.1732 21.337C32.5091 21.1759 31.9858 20.9948 31.6437 20.8137C31.4686 20.73 31.3218 20.5971 31.221 20.4313C31.1658 20.3187 31.1382 20.1945 31.1405 20.069V19.3848C31.1405 19.103 31.2412 18.9823 31.4424 18.9823H31.6839C31.7644 18.9823 31.8852 19.0829 32.0261 19.1433C32.4688 19.3445 32.972 19.5055 33.4952 19.6062C34.0386 19.7068 34.582 19.7672 35.0851 19.7672C35.9304 19.7672 36.5946 19.6263 37.0373 19.3244C37.5002 18.9823 37.7417 18.5999 37.7417 18.0565C37.7417 17.6741 37.6008 17.3722 37.3795 17.1106C37.1379 16.8691 36.6751 16.6276 36.031 16.4263L34.0789 15.8226C33.1128 15.5005 32.3883 15.0578 31.9456 14.454C31.5135 13.8951 31.2798 13.2083 31.2814 12.5018C31.2814 11.9383 31.4022 11.4553 31.6437 11.0327C31.8852 10.5899 32.2072 10.2277 32.5695 9.92577C33.0122 9.62389 33.455 9.40251 33.9984 9.24151C34.5216 9.0805 35.0851 9 35.6889 9C35.9707 9 36.2725 9.02013 36.5946 9.06038C36.8763 9.10063 37.1581 9.161 37.4398 9.20126C37.7216 9.28176 37.9631 9.34213 38.2046 9.42264C38.4461 9.50314 38.6071 9.58364 38.7681 9.66414C38.9492 9.76477 39.0901 9.8654 39.1706 9.98615C39.2511 10.1069 39.2914 10.2478 39.2914 10.4289V11.0729C39.2914 11.3547 39.1908 11.4956 38.9895 11.4956C38.8889 11.4956 38.7077 11.4352 38.4662 11.3346C37.7216 10.9924 36.8562 10.8113 35.9103 10.8113C35.1455 10.8113 34.582 10.9321 34.1191 11.1937C33.7166 11.4352 33.4952 11.8377 33.4952 12.3811C33.4952 12.7635 33.6361 13.0855 33.8977 13.327C34.1594 13.5886 34.6625 13.8301 35.3669 14.0716L37.2788 14.6754C38.2449 14.9572 38.9291 15.3999 39.3518 15.9634C39.7543 16.5068 39.9555 17.1307 39.9555 17.8351C39.9555 18.3986 39.8348 18.9219 39.6134 19.3848C39.3719 19.8275 39.0499 20.23 38.6071 20.5521C38.2247 20.8942 37.7216 21.1357 37.1581 21.3168C36.5946 21.498 35.9103 21.5785 35.2461 21.5785ZM37.7618 28.0991C33.3543 31.3393 26.9544 33.0701 21.5004 33.0701C13.7521 33.0701 6.80877 30.2123 1.55601 25.4828C1.13337 25.1004 1.51575 24.5973 2.01889 24.8992C7.69429 28.1796 14.6779 30.1721 21.923 30.1721C26.8135 30.1721 32.1871 29.1658 37.1178 27.0325C37.8625 26.7306 38.4864 27.5557 37.7618 28.0991ZM39.6134 26.0262C39.0297 25.2816 35.87 25.6639 34.4411 25.8249C34.0185 25.8853 33.9581 25.5029 34.3405 25.2212C36.8562 23.4703 41.002 24.0136 41.4649 24.557C41.9479 25.1608 41.3442 29.3067 38.9895 31.279C38.6071 31.5808 38.265 31.4198 38.426 31.0576C38.9694 29.689 40.1568 26.7105 39.6134 26.0262Z" fill="#A86338"/>
</svg>
